X:1
T:Quasi adagio
T:26-Moderato
T:Béla Bartók Revised and Arranged by the Composer, January 1945 
T:Book 1 (after Hungarian Folksongs)
T:For Children Nr 26 , Sz 42
C:Bela bartok
%%score { 1 | ( 2 3 ) }
L:1/8
Q:1/8=150
M:3/8
K:Bb
V:1 treble nm="Piano"
V:2 bass 
V:3 bass 
V:1
"^Moderato," z3 | z3 |[M:2/8] z2 |[M:3/8] !tenuto!!4!d!<(!(!4!dB | d)!<)!!>(! (d2 | %5
[M:2/8] c2)!>)! |[M:3/8] !tenuto!d!<(!(dB | c)!<)!!>(! (c2!>)! |[M:2/8] B2) | %9
[M:3/8] !tenuto!!3!B(!2!B!1!G | B) (d2 |[M:2/8] c2) |[M:3/8] !tenuto!d!<(!(dB) | %13
 !tenuto!!4!B !tenuto!!2!G2!<)! | (!^!D3 |!>(! (D3) |[M:2/8] D2)!>)! | %17
[M:3/8]!mp! !tenuto!!4!d!<(!(!4!dB | d)!<)!!>(! d2 |[M:2/8] c2!>)! |[M:3/8] !tenuto!d!<(!(dB | %21
 c)!<)!!>(! (c2 |[M:2/8] B2)!>)! |[M:3/8]!p! !tenuto!B(BG | B) (d2 |[M:2/8] c2) | %26
[M:3/8]!pp! !tenuto!d"_cresc."(dB) | !tenuto!B !tenuto!G2 |!mf!!<(! D3-!<)! |!>(! D3- | %30
[M:2/8] D2-!>)! |[M:3/8]!p! D3- | D3- | D3- | D2 z |] %35
V:2
!p!!ped! (!3
5
![G,B,] D2) | ([G,B,]2 D) |[M:2/8] ([G,B,]D) |[M:3/8] ([G,B,] D2)!ped-up! | %4
!ped! ([G,A,]2 !1!E)!ped-up! |[M:2/8]!ped! ([G,A,]E) |[M:3/8] ([G,B,]!ped-up!!ped! D2)!ped-up! | %7
 (B,2 !1!A,) |[M:2/8] (E!1!D) |[M:3/8]!ped! (!3
5
![E,G,] B,2)!ped-up! | %10
!ped! ([^E,F,]2 B,)!ped-up! |[M:2/8]!ped! ([E,G,]A,)!ped-up! |[M:3/8]!ped! ([E,G,] B,2)!ped-up! | %13
!ped! ([E,G,]2 !1!C) | (!5!D, !2!A,2) | !5!D,2 !2!A, |[M:2/8] (!1!A,!4!D,) | %17
[M:3/8] (!2!F,!ped-up!!ped! !5!B,,2)!ped-up! |!ped! (!2!!1![E,G,]2 B,,)!ped-up! | %19
[M:2/8]!ped! ([E,_G,]B,,) |[M:3/8] (!1!F,!ped-up!!ped! B,,2)!ped-up! |!ped! (!2!!1![E,_A,]2 B,,) | %22
[M:2/8] (!2!!1![E,_A,]!ped-up!!3!D,) |[M:3/8]!ped! !2!!1![E,G,]2 z!ped-up! | %24
!ped! (!2!!1![F,B,]2 C,) |[M:2/8] ([F,B,]!ped-up!!ped!C,) |[M:3/8] ([=E,B,]2!ped-up!!ped! C,) | %27
 z3!ped-up! |!ped! (!5!F, B,2 | C2!ped-up! B,) |[M:2/8] (!1!A,!3!D,) | %31
[M:3/8] (!5!G,,!ped! !2!D,2) | (G,,3 | D,3- | D,2) z!ped-up! |] %35
V:3
 x3 | x3 |[M:2/8] x2 |[M:3/8] x3 | x3 |[M:2/8] x2 |[M:3/8] x3 | !2
5
!F,3 |[M:2/8] !2
5
!B,2 | %9
[M:3/8] x3 | x3 |[M:2/8] x2 |[M:3/8] x3 | x3 | x3 | x3 |[M:2/8] x2 |[M:3/8] x3 | x3 |[M:2/8] x2 | %20
[M:3/8] x3 | x3 |[M:2/8] x2 |[M:3/8] x3 | x3 |[M:2/8] x2 |[M:3/8] x3 | x3 | x3 | x3 |[M:2/8] x2 | %31
[M:3/8] x3 | x3 | x3 | x3 |] %35

